X: 34667
T: Road To Cashel, The
R: reel
M: 4/4
K: Eminor
|:FEED E2EG|FEE2 DFAB|FEED B,EGE|FD (3DDD FABA|
FEED E2EG|FEE2 DFAB|FE (3EEE EFGE|FADF ADFA:|
|:B3B d (3efg fe|defa afed|B3B gf2f|dBAd BE2E|
BABd e^def|dfab adfa|bf2f af2f|bfaf edBA|FEDE2:|

